X:11
T:Mar Castle.
C: J. Scott Skinner
M:C
L:1/8
U: t=!tenuto!
R: Pastoral, slow strathspey, slow air
Z: Jason R. Fruit <JasonFruit@gmail.com>
K:E
"^Slow and bold"B,>E G<E B<E {d}!fermata!e2 | (c>>te) (B>>te) c<F {GF^E}F>G | B,>E G<E B<E {d}!fermata![eE]2 |1 {A,E} (c>>te) (B>>te) G<E {FED}Ez :|2 {A,E}(c>>te) (B>>te) G<E {FED}E a|
(g>>e b>>e {d'}!0!e'>>b g>>e) | (d>>Bf>>d !0!a>>fd>>B) | (g>>e b>>e !0!e'>>b g>>e) | (ab/c'/) (f>b) {ga}g>e (eb) |
(g/f/e) (b>g) ((3!upbow!.e'.b.g (3.e.B.G) | (d/c/B) (f>d) ((3!0!!upbow!a.f.d (3.B.A.F) | ((3EGB) ((3egb) ((3e'g'b') e''>b | (c'>>e') (b>>e') {ga}g>e [eBG]2 |]

